X:684
T:Reel 684
M:4/4
K:Gmaj
L:1/8
dc|BGGB d2cB|ADDE FGAc|BGGB d2cB|AGAG ABcA|BGGB d2cB|ADDE FGAc|BGGB d2cB|cdef g2|d2|gddf gdbg|adbg fdef|gddf gbag|fdef g2dc|Bddd gdcG|Addg fgac'|bgaf gfeg|fdcA BGG|
